icons/Twitter.svg

<svg width="24" height="24" viewBox="0 0 24 24" fill="none" xmlns="http://www.w3.org/2000/svg">
<path fill-rule="evenodd" clip-rule="evenodd" d="M23.0745 5.13097C22.2451 5.49858 21.3654 5.73992 20.4645 5.84697C21.4142 5.27946 22.125 4.38592 22.4645 3.33297C21.5722 3.8614 20.5961 4.23342 19.5785 4.43297C18.8932 3.70398 17.9867 3.22126 16.9993 3.05954C16.012 2.89782 14.9988 3.06614 14.1168 3.53842C13.2347 4.0107 12.533 4.7606 12.1202 5.67201C11.7075 6.58342 11.6067 7.60549 11.8335 8.57997C10.0267 8.48953 8.2591 8.02008 6.64552 7.20209C5.03195 6.3841 3.60846 5.23587 2.4675 3.83197C1.88609 4.83251 1.70784 6.01702 1.96905 7.14435C2.23027 8.27169 2.9113 9.2571 3.8735 9.89997C3.15187 9.87676 2.44624 9.68133 1.8155 9.32997C1.8155 9.34897 1.8155 9.36797 1.8155 9.38697C1.81565 10.4362 2.17866 11.4531 2.843 12.2653C3.50733 13.0774 4.4321 13.6348 5.4605 13.843C4.79137 14.025 4.08951 14.0516 3.4085 13.921C3.69876 14.8239 4.26399 15.6135 5.02512 16.1794C5.78626 16.7453 6.70523 17.0591 7.6535 17.077C6.04372 18.3403 4.05578 19.0253 2.0095 19.022C1.64724 19.0222 1.28529 19.0012 0.925499 18.959C3.0034 20.294 5.42171 21.0025 7.8915 21C9.59262 21.0117 11.2791 20.6852 12.853 20.0396C14.4269 19.394 15.8569 18.4421 17.0598 17.2392C18.2627 16.0363 19.2146 14.6064 19.8602 13.0325C20.5058 11.4586 20.8322 9.77209 20.8205 8.07097C20.8205 7.87097 20.8162 7.67497 20.8075 7.48297C21.6969 6.83984 22.4645 6.0434 23.0745 5.13097Z" fill="black"/>
</svg>

<svg xmlns="http://www.w3.org/2000/svg" viewBox="0 0 24 24">
  <path d="M23.075 5.131c-.83.368-1.71.609-2.61.716a4.558 4.558 0 002-2.514 9.1 9.1 0 01-2.887 1.1 4.549 4.549 0 00-7.744 4.147 12.9 12.9 0 01-9.366-4.748A4.549 4.549 0 003.873 9.9a4.528 4.528 0 01-2.058-.57v.057a4.547 4.547 0 003.645 4.456 4.552 4.552 0 01-2.051.078 4.55 4.55 0 004.245 3.156 9.118 9.118 0 01-5.644 1.945c-.363 0-.725-.02-1.085-.063A12.863 12.863 0 007.891 21a12.84 12.84 0 0012.93-12.929c0-.2-.005-.396-.014-.588a9.24 9.24 0 002.268-2.352z"/>
</svg>
